!!!COM: Palestrina, Giovanni Perluigi da
!!!OPR: In duplicibus minoribus (I)
!!!OTL: Sanctus rpt
**kern	**kern	**kern	**kern	**kern
*Ibass	*Itenor	*Itenor	*Icalto	*Icant
!Bassus	!Tenor 2	!Tenor 1	!Altus	!Cantus
*clefF4	*clefGv2	*clefGv2	*clefG2	*clefG2
*k[]	*k[]	*k[]	*k[]	*k[]
*E:phr	*E:phr	*E:phr	*E:phr	*E:phr
*M4/2	*M4/2	*M4/2	*M4/2	*M4/2
=1	=1	=1	=1	=1
0r	0r	0r	0r	1e
.	.	.	.	1g
=2	=2	=2	=2	=2
0r	0r	0r	1A	1.a
.	.	.	1c	.
.	.	.	.	2g
=3	=3	=3	=3	=3
0r	0r	1r	1.d	2.f
.	.	.	.	4g
.	.	1A	.	4a
.	.	.	.	4b
.	.	.	2c	[2cc
=4	=4	=4	=4	=4
0r	0r	1c	2A	4cc]
.	.	.	.	4b
.	.	.	2c	1a
.	.	[1d	1B	.
.	.	.	.	2g#
=5	=5	=5	=5	=5
0r	1A	2d]	2r	0a
.	.	2c	1e	.
.	1c	2A	.	.
.	.	2c	[2a	.
=6	=6	=6	=6	=6
0r	1.d	1B	2a]	2r
.	.	.	2g	4d
.	.	.	.	4e
.	.	2.A	2f	4f
.	.	.	.	4g
.	2c	.	4e	[2a
.	.	4B	4d	.
=7	=7	=7	=7	=7
1r	2A	4c	1e	2a]
.	.	4d	.	.
.	2c	2.e	.	4g
.	.	.	.	4f
1E	2B	.	1e	[1g
.	.	4d	.	.
.	2e	[2c	.	.
=8	=8	=8	=8	=8
1G	1d	2c]	1r	1g]
.	.	2B	.	.
[1A	1c	2c	2r	2e
.	.	2A	4c	[2cc
.	.	.	4d	.
=9	=9	=9	=9	=9
2A]	0r	2c	4e	2cc]
.	.	.	4f	.
2G	.	2d	2.g	2b
2E	.	1e	.	2g
.	.	.	4f	.
2G	.	.	[2e	2b
=10	=10	=10	=10	=10
1F	2r	2.A	2e]	1a
.	2.A	.	2d	.
.	.	4B	.	.
1E	.	2c	[1e	1r
.	4G	.	.	.
.	2G	4B	.	.
.	.	4A	.	.
=11	=11	=11	=11	=11
2r	1B	1G	1e]	0r
2.E	.	.	.	.
.	2c	1r	2r	.
4E	.	.	.	.
2D	[2d	.	[2A	.
=12	=12	=12	=12	=12
2F	4d]	0r	4A]	1r
.	4c	.	4A	.
2G	2.e	.	2B	.
1A	.	.	4c	2r
.	4d	.	4d	.
.	[2c	.	4e	[2e
.	.	.	4f	.
=13	=13	=13	=13	=13
1G	2c]	0r	1g	4e]
.	.	.	.	4e
.	2B	.	.	2d
2F	2A	.	2c	2f
2E	[2c	.	[2e	2g
=14	=14	=14	=14	=14
1F	2c]	1r	2e]	1a
.	4B	.	2d	.
.	4A	.	.	.
2.E	2B	2r	[1e	2.g
.	[2e	[2B	.	.
4F	.	.	.	4a
=15	=15	=15	=15	=15
2G	4e]	4B]	1e]	2b
.	4d	4B	.	.
2A	4c	2A	.	2.cc
.	4B	.	.	.
1F	1A	2c	1r	.
.	.	.	.	4b
.	.	2d	.	[2a
=16	=16	=16	=16	=16
1E	1B	0e	1r	2a]
.	.	.	.	2g#
1AA	1A	.	2r	2a
.	.	.	[2A	[2cc
=17	=17	=17	=17	=17
0r	0r	2c	4A]	4cc]
.	.	.	4A	4cc
.	.	2.d	2G	2b
.	.	.	2B	2g
.	.	8c	.	.
.	.	8B	.	.
.	.	2A	2c	[2a
=18	=18	=18	=18	=18
2r	0r	1B	2d	2a]
2.E	.	.	1e	4g#
.	.	.	.	4f#
.	.	1r	.	2g#
4E	.	.	.	.
2D	.	.	[2f	[2a
=19	=19	=19	=19	=19
2F	1r	0r	4f]	2a]
.	.	.	4e	.
2G	.	.	1d	4g
.	.	.	.	4f
1A	2r	.	.	2e
.	[2A	.	2c#	2e
=20	=20	=20	=20	=20
2F#	4A]	2r	4d	1d
.	4A	.	4c	.
2.G	2G	2.d	4B	.
.	.	.	4A	.
.	2B	.	2G	1r
4F	.	4d	.	.
2E	2c	2G	[2c	.
=21	=21	=21	=21	=21
1D	1d	2A	2c]	1r
.	.	2F	2B	.
2C	2e	2G	1c	2r
[2c	2c	2A	.	[2e
=22	=22	=22	=22	=22
2c]	2r	1G	1r	4e]
.	.	.	.	4e
2B	2d	.	.	2d
2A	2c	1r	2r	2f
2G	2B	.	[2e	2g
=23	=23	=23	=23	=23
1F	1A	1r	4e]	1.a
.	.	.	4e	.
.	.	.	2d	.
2.E	1B	2r	1e	.
.	.	[2E	.	2g
4F	.	.	.	.
=24	=24	=24	=24	=24
2G	2r	4E]	2B	2e
.	.	4E	.	.
2A	2.A	2D	2.d	1f
2D	.	2F	.	.
.	4A	.	4c	.
2E	2G	2G	2B	[2e
=25	=25	=25	=25	=25
1F	2c	1A	2A	2e]
.	2A	.	2E	4d
.	.	.	.	4c
1F	1r	1A	2r	1d
.	.	.	[2A	.
=26	=26	=26	=26	=26
1E	2r	1B	4A]	1e
.	.	.	4A	.
.	2.e	.	2G	.
[1AA	.	2.e	2.c	2r
.	4d	.	.	.
.	4c	.	.	[2a
.	4B	4d	4d	.
=27	=27	=27	=27	=27
2AA]	2A	2c	1e	2a]
2E	2B	2B	.	2g#
1AA	1c	1A	1e	1a
=28	=28	=28	=28	=28
[0E	[0B	[0G#	[0e	[0b
=29	=29	=29	=29	=29
0E]	0B]	0G#]	0e]	0b]
*	*	*	*	*-
!! Pleni
*Itenor	*Itenor	*Icalto	*Icant
!Tenor 2	!Tenor 1	!Altus	!Cantus
*clefGv2	*clefGv2	*clefG2	*clefG2
*k[]	*k[]	*k[]	*k[]
*E:phr	*E:phr	*E:phr	*E:phr
*M4/2	*M4/2	*M4/2	*M4/2
=30	=30	=30	=30
1A	0r	0r	0r
2G	.	.	.
2E	.	.	.
=31	=31	=31	=31
2.A	0r	1r	0r
4G	.	.	.
4A	.	1e	.
4B	.	.	.
2c	.	.	.
=32	=32	=32	=32
2B	0r	2d	1r
2G	.	2B	.
1A	.	2.e	2r
.	.	.	2a
.	.	4d	.
=33	=33	=33	=33
2E	0r	4e	2g
.	.	4f	.
2.e	.	2g	2e
.	.	2f	2.a
4d	.	.	.
2d	.	2d	.
.	.	.	4g
=34	=34	=34	=34
2.c	1A	1e	4a
.	.	.	4b
.	.	.	2cc
4d	.	.	.
1e	2G	2E	2b
.	2E	2B	2g
=35	=35	=35	=35
1e	2.A	2c	1a
.	.	2c	.
.	4G	.	.
2r	4A	1c	2e
.	4B	.	.
2e	2c	.	4e
.	.	.	4f
=36	=36	=36	=36
2d	2B	2G	4g
.	.	.	4a
2B	2G	2d	2.b
1e	1A	2c	.
.	.	.	4a
.	.	4B	[2a
.	.	4A	.
=37	=37	=37	=37
2.e	1E	1B	2a]
.	.	.	2g#
4d	.	.	.
4c	2.F	2A	1a
4B	.	.	.
4A	.	2c	.
4G	4G	.	.
=38	=38	=38	=38
2F	4A	2d	0r
.	4B	.	.
2E	1c	2e	.
1D	.	1f	.
.	2B	.	.
=39	=39	=39	=39
1C	1c	2.e	2r
.	.	.	2g
.	.	4d	.
1r	1r	2c	2a
.	.	2B	2b
=40	=40	=40	=40
0r	1r	2A	1.cc
.	.	2c	.
.	1G	2d	.
.	.	2e	2b
=41	=41	=41	=41
1r	2A	2f	2a
.	2B	2d	1g
1C	1c	1e	.
.	.	.	4f
.	.	.	4e
=42	=42	=42	=42
2D	1B	2d	2f
2E	.	2G	1e
1F	2r	1A	.
.	2A	.	2d
=43	=43	=43	=43
2E	2B	2r	1e
2E	2c	2G	.
2F	2d	2A	1r
2G	[2e	2B	.
=44	=44	=44	=44
1A	4e]	4c	2r
.	4d	4d	.
.	1c	4e	2c
.	.	4f	.
1G	.	1g	2d
.	2B	.	2e
=45	=45	=45	=45
2.F	2.A	1.c	1f
4G	4B	.	.
4A	1c	.	2.e
4B	.	.	.
[2c	.	2e	.
.	.	.	4f
=46	=46	=46	=46
2c]	1G	1d	1g
2B	.	.	.
1c	2.A	2r	1e
.	.	2c	.
.	4G	.	.
=47	=47	=47	=47
2r	2F	2d	0r
2G	2E	2e	.
2A	1D	1f	.
2B	.	.	.
=48	=48	=48	=48
1.c	1C	[0e	1g
.	2r	.	2a
2B	2G	.	2b
=49	=49	=49	=49
2A	2A	1e_	2cc
2G#	2B	.	2b
[1A	[1c	1e_	[1a
=50	=50	=50	=50
1A]	1c]	0e]	1a]
1E	1B	.	1g#
*-	*-	*-	*-
!! Hosanna
**kern	**kern	**kern	**kern	**kern
*Ibass	*Itenor	*Itenor	*Icalto	*Icant
!Bassus	!Tenor 2	!Tenor 1	!Altus	!Cantus
*clefF4	*clefGv2	*clefGv2	*clefG2	*clefG2
*k[]	*k[]	*k[]	*k[]	*k[]
*E:phr	*E:phr	*E:phr	*E:phr	*E:phr
*M3/2	*M3/2	*M3/2	*M3/2	*M3/2
=51	=51	=51	=51	=51
2E	1r	2e	1r	2r
2G	.	2d	.	2r
2A	2r	2c	2r	2e
=52	=52	=52	=52	=52
2E	1r	2B	1r	2g
2.A	.	2.c	.	2a
.	2r	.	2r	2e
4B	.	4d	.	.
=53	=53	=53	=53	=53
2c	2r	1e	2r	2a
1B	2D	.	2e	2g
.	2G	2B	2d	2g
=54	=54	=54	=54	=54
1A	2A	2c	2c	1e
.	2E	1e	2B	.
2G	2E	.	2e	2b
=55	=55	=55	=55	=55
2A	1e	1r	2c	2.cc
2E	.	.	2.g	.
.	.	.	.	4b
2G	2d	2r	.	2b
.	.	.	4f	.
=56	=56	=56	=56	=56
2A	2c	1r	4e	2.a
.	.	.	4d	.
2E	1B	.	2.e	.
.	.	.	.	4g#
2E	.	2r	.	2g#
.	.	.	4d	.
=57	=57	=57	=57	=57
1F	1r	2A	2c	2.a
.	.	2c	1A	.
.	.	.	.	4g
2D	2r	2d	.	2f
=58	=58	=58	=58	=58
1A	2r	2.c	2r	1.e
.	2A	.	2a	.
.	.	4d	.	.
2r	2c	2e	2g	.
=59	=59	=59	=59	=59
1r	2d	2r	2f	1a
.	2c	2A	1e	.
2r	2e	2c	.	2g
=60	=60	=60	=60	=60
1r	1d	2d	2.a	2f
.	.	2A	.	2e
.	.	.	4g	.
2r	2c	2A	2e	[2a
=61	=61	=61	=61	=61
1r	1d	4D	1f	4a]
.	.	4E	.	4g
.	.	4F	.	4a
.	.	4G	.	4b
2r	2c	4A	4e	[2cc
.	.	4B	4d	.
=62	=62	=62	=62	=62
2r	2A	4c	4e	2cc]
.	.	4d	4f	.
2E	2B	2.e	2.g	4b
.	.	.	.	4a
2G	2E	.	.	2b
.	.	4d	4f	.
=63	=63	=63	=63	=63
2A	1r	2c	4e	1a
.	.	.	4d	.
1E	.	1B	1e	.
.	2r	.	.	2g#
=64	=64	=64	=64	=64
1A	2A	2c	2.e	2a
.	2c	2r	.	2e
.	.	.	8d	.
.	.	.	8c	.
2G	2d	2r	2B	2g
=65	=65	=65	=65	=65
2F	2.A	1r	2.c	2a
2.A	.	.	.	1e
.	4B	.	4d	.
.	2c	2r	2e	.
4G	.	.	.	.
=66	=66	=66	=66	=66
2F	2d	2A	1.r	2a
2E	2e	2c	.	2g
[2D	2A	2d	.	[2f
=67	=67	=67	=67	=67
2D]	1r	2d	2A	4f]
.	.	.	.	4d
2C	.	2G	2c	2e
2G	2r	2B	2d	2d
=68	=68	=68	=68	=68
2E	1r	1c	2G	2.e
1F	.	.	2A	.
.	.	.	.	8d
.	.	.	.	8c
.	2r	4B	2A	2d
.	.	4A	.	.
=69	=69	=69	=69	=69
1E	2r	2.G#	1B	1e
.	2E	.	.	.
.	.	4A	.	.
2r	2G	2B	[2E	2e
=70	=70	=70	=70	=70
2AA	2A	2c	2E]	2e
2.C	2E	2G	1e	4c
.	.	.	.	4d
.	2A	2c	.	4e
4D	.	.	.	4f
=71	=71	=71	=71	=71
2E	2G	2B	2e	2g
1AA	1c	1A	1e	1a
=72	=72	=72	=72	=72
[1.E	[1.B	[1.G#	[1.e	[1.b
=73	=73	=73	=73	=73
2E_	2B_	2G#_	2e_	2b_
1E_	1B_	1G#_	1e_	1b_
=74	=74	=74	=74	=74
1E]	1B]	1G#]	1e]	1b]
==	==	==	==	==
*-	*-	*-	*-	*-
!!!CDT: 1525/^1526/-1594/2/2
!!!OCY: Italia
!!!AGN: Mass (Paraphrase)
!!!AST: renaissance, vocal
!!!ASW: Gregorian Mass
!!!PWK: Masses, Book Mantuan I
!!!RNB: Cadence finals: A
!!!YOR: Le Opere Complete, v. 18, p. 42
!!!YOO: Rome, Italy: Fratelli Scalera
!!!END: 1992//
!!!EED: John Miller
!!!YEC: Copyright 2000, John Miller
!!!YEN: United States of America
!!!YEM: Rights to all derivative electronic formats reserved.
!!!YEM: Refer to licensing agreement for further details.
!!!YEM: This file must be accompanied by the licensing agreement.
!!!YEM: A copy of the licensing agreement may be found at http://www.music-cog.ohio-state.edu/HumdrumDatabases/Palestrina/license.txt
!!!EMD: converted to Humdrum by Bret Aarden
